X: 24675
T: MacKinnon's Other Rant
R: reel
M: 4/4
K: Adorian
B|"Am"{AB}[A2A2] ag "Em"{ef}[e2e2] dB|"G"degd {Bc}B2 AG|"Am"Agab {ab}ageg|"G"dBgB "Am"{AB}[A2A2] A:|
B|"Am"{AB}[A2A2] Bd "Em"{d}[e2e2] dB|"G"degd {Bc}B2 AG|"Am"{G}[A2A2] Bd "Em"[ee]dBe|"G"dBgB "Am"{AB}[A2A2] AB|
"Am"{AB}[A2A2] Bd "Em"{d}[e2e2] dB|"G"degd {Bc}B2 AG|"Am"Agab {ab}ageg|"G"dBgB "Am"{AB}[A2A2] A||

